sprites/streets-v8/_svg/america-football-11.svg

<?xml version="1.0" encoding="UTF-8" standalone="no"?>
<svg
   xmlns:dc="http://purl.org/dc/elements/1.1/"
   xmlns:cc="http://creativecommons.org/ns#"
   xmlns:rdf="http://www.w3.org/1999/02/22-rdf-syntax-ns#"
   xmlns:svg="http://www.w3.org/2000/svg"
   xmlns="http://www.w3.org/2000/svg"
   id="svg2"
   width="19"
   height="19"
   viewBox="0 0 19 19"
   version="1.1">
  <metadata
     id="metadata14">
    <rdf:RDF>
      <cc:Work
         rdf:about="">
        <dc:format>image/svg+xml</dc:format>
        <dc:type
           rdf:resource="http://purl.org/dc/dcmitype/StillImage" />
      </cc:Work>
    </rdf:RDF>
  </metadata>
  <defs
     id="defs12" />
  <ellipse
     id="ellipse4"
     ry="9.5"
     rx="9.5"
     cy="9.5"
     cx="9.5"
     style="fill:#ffffff;stroke:none;" />
  <ellipse
     id="ellipse6"
     rx="8.5"
     ry="8.5"
     cy="9.5"
     cx="9.5"
     style="fill:#7e9a4c;stroke:none;" />
  <g
     id="g8"
     transform="translate(4,3.5)">
    <metadata     id="metadata9"><rdf:RDF><cc:Work         rdf:about=""><dc:format>image/svg+xml</dc:format><dc:type           rdf:resource="http://purl.org/dc/dcmitype/StillImage" /><dc:title /></cc:Work></rdf:RDF></metadata><defs     id="defs7" /><path     id="path5"     d="M 5.4999999,2.4999997 C 1.5,2.4999997 0,6 0,6 0,6 1.5,9.5000002 5.5000001,9.4999998 9.5,9.4999997 11,5.9999998 11,5.9999998 c 0,0 -1.4999999,-3.4999999 -5.5000001,-3.5000001 z m 2.5000002,4.0000001 -1,0 0,0.5000001 c 0,0.2999999 -0.2,0.5 -0.5,0.5 -0.3,-10e-8 -0.5,-0.2000001 -0.5,-0.5 l 0,-0.5000001 -1,0 0,0.5000001 c 0,0.2999999 -0.2000001,0.4999999 -0.5000001,0.5 -0.3,0 -0.5,-0.2000001 -0.5,-0.5 l 0,-0.5000001 -1,0 c -0.3,0 -0.5,-0.1999999 -0.5,-0.5 C 2.5,5.7000001 2.7,5.5000001 3,5.4999999 l 1,-10e-8 0,-0.5 c 0,-0.2999999 0.2,-0.5 0.5,-0.5 0.3,10e-8 0.5000001,0.2000001 0.5000001,0.5 l 0,0.5 1,0 0,-0.5 c 0,-0.2999999 0.2,-0.4999999 0.5,-0.5 0.3,0 0.5,0.2000001 0.5,0.5 l 0,0.5 1,10e-8 c 0.3,-10e-8 0.5,0.1999999 0.4999999,0.4999999 10e-8,0.3000001 -0.1999999,0.5 -0.4999999,0.5 z"     style="fill:#ffffff;fill-opacity:1" />
  </g>
</svg>

<?xml version="1.0" encoding="utf-8"?>
<!-- Generator: Adobe Illustrator 17.1.0, SVG Export Plug-In . SVG Version: 6.00 Build 0)  -->
<!DOCTYPE svg PUBLIC "-//W3C//DTD SVG 1.1//EN" "http://www.w3.org/Graphics/SVG/1.1/DTD/svg11.dtd">
<svg version="1.1"
	 id="svg2" xmlns:svg="http://www.w3.org/2000/svg" xmlns:cc="http://creativecommons.org/ns#" xmlns:dc="http://purl.org/dc/elements/1.1/" xmlns:rdf="http://www.w3.org/1999/02/22-rdf-syntax-ns#"
	 xmlns="http://www.w3.org/2000/svg" xmlns:xlink="http://www.w3.org/1999/xlink" x="0px" y="0px" width="19px" height="19px"
	 viewBox="0 0 19 19" enable-background="new 0 0 19 19" xml:space="preserve">
<ellipse id="ellipse4" fill="#FFFFFF" cx="9.5" cy="9.5" rx="9.5" ry="9.5"/>
<ellipse id="ellipse6" fill="#7E9A4C" cx="9.5" cy="9.5" rx="8.5" ry="8.5"/>
<g id="g8" transform="translate(4,3.5)">
	<path id="path5" fill="#FFFFFF" d="M5.5,2.5C1.5,2.5,0,6,0,6s1.5,3.5,5.5,3.5S11,6,11,6S9.5,2.5,5.5,2.5z M8,6.5H7V7
		c0,0.3-0.2,0.5-0.5,0.5S6,7.3,6,7V6.5H5V7c0,0.3-0.2,0.5-0.5,0.5S4,7.3,4,7V6.5H3C2.7,6.5,2.5,6.3,2.5,6S2.7,5.5,3,5.5h1V5
		c0-0.3,0.2-0.5,0.5-0.5S5,4.7,5,5v0.5h1V5c0-0.3,0.2-0.5,0.5-0.5S7,4.7,7,5v0.5h1c0.3,0,0.5,0.2,0.5,0.5S8.3,6.5,8,6.5z"/>
</g>
</svg>
